!!!OTL: Das Lied vom Ackersmann (3-46), S. 137
!!!id: P1018
**kern
*clefG2
*k[]
*d:
{8f
8e
=1
8d
8d
4d
=2
*M3/4
4.a
8b
4cc
=3
*M2/4
4b
4a
=4
2g}
=5
{4g
=6
4a
8b
8cc
=7
*M3/4
4.dd
8ee
4dd
=8
*M2/4
4cc
4b
=9
2a}
=10
{8a
8g
=11
4a
4dd
=12
*M3/4
4cc
4b
4a
=13
*M2/4
4cc
4b
=14
2a}
=15
{4cc
=16
4b
4a
=17
*M3/4
2g
8a
8g
=18
*M2/4
4f
4e
=19
2d}
=20
{4d
=21
4f
4g
=22
*M3/4
4.a
8g
4f
=23
*M2/4
4a
4b
=24
*M3/4
4.a
8g
4f
=25
*M2/4
4e
4g
=26
2d}
==
*-
!!!minrhy: 8
!!!meters: 2/4 3/4 ]  ZZ[5
!!!cut: Das Lied vom Ackersmann (3-46), S. 137
!!!reg: Lothringen
!!!trd: PINCK, Louis: Verklingende Weisen, Bd3, Metz 1933
!!!rhy1: XX  XXX_  X_.XX_  X_X_  X__
!!!rhy2: X_  X_XX  X_.XX_  X_X_  X__
!!!key: P1018  08  D 2/4 3/4 ]  ZZ[5
!!!mod: HEPTATONIK DORISCH]  AMBITUS[9
!!!kad: 45511
!!!akz: 1564_5+17b5_57b7b5_643b1_3b55521_
!!!fot: 'a__b__c__d__e__
!!!for: 'a__b__c__d__e__
!!!fok: 'Sa_^a_^__\__M__
!! PHRAS[AUFTAKTIG]
!!!fkt: Berufslied
!! LOTH VKL
!! PR[36] 2K[2] 2G[12] 3K[0] 3G[10] 4A[10] 4Ü[0] 5A[0] 6K[0] 6G[0]
!! 7K[0] 7G[0] 8A[0] MEHR[0] SI[33] ABS[42] SR[14] SP[19]
!! ST[11] 2k[0] 2g[14] 3k[2] 3g[5] 4d[7] 4ü[0] 5d[2] 6k[0] 6g[0]
!! 7k[0] 7g[0] 8d[0] mehr[0] si[31] dm[+2] sr[14] sp[17]
!! 1F[23] 2F[66] 3F[11] 4F[0] LF[0] 2P[0] 3P[0] 4P[0] TRI[0] DF[3] AB[44]
!! TF[0] U3K[0] U3[0] U4[0] U4Ü[0] U5[0] U6K[5] U6[0] U7K[16] U7[0]
!! N1[23] N2K[0] N2[2] N3K[35] N3[0] N4[9] N4Ü[0] N5[9] N6K[0] N6[0]
!!!n7k: 0] N7[0] O1[0] O2K[0] O2[0] O3K[0] O3[0] HÖ[0
